icons/svg/icons8/web_search.svg

<?xml version="1.0" encoding="utf-8"?>
<!-- Generator: Adobe Illustrator 16.0.0, SVG Export Plug-In . SVG Version: 6.00 Build 0)  -->
<!DOCTYPE svg PUBLIC "-//W3C//DTD SVG 1.1//EN" "http://www.w3.org/Graphics/SVG/1.1/DTD/svg11.dtd">
<svg version="1.1" id="Layer_1" xmlns="http://www.w3.org/2000/svg" xmlns:xlink="http://www.w3.org/1999/xlink" x="0px" y="0px"
	 width="26px" height="26px" viewBox="0 0 26 26" enable-background="new 0 0 26 26" xml:space="preserve">
<rect fill="none" width="26" height="26"/>
<g>
	<circle fill="#333333" cx="11" cy="11" r="4"/>
	<path fill="#333333" d="M24.2,1H1.8C1.359,1,1,1.363,1,1.812v22.375C1,24.637,1.359,25,1.8,25h22.4c0.44,0,0.8-0.363,0.8-0.812
		V1.812C25,1.363,24.641,1,24.2,1z M20.701,20.733c-0.54,0.54-0.861,0.521-1.002,0.38c-0.141-0.142-5.227-5.227-5.227-5.227
		C13.492,16.585,12.296,17,11,17c-3.313,0-6-2.687-6-6s2.687-6,6-6s6,2.687,6,6c0,1.295-0.415,2.492-1.113,3.473
		c0,0,5.102,5.102,5.227,5.227C21.238,19.823,21.241,20.193,20.701,20.733z"/>
</g>
</svg>

<svg width="26" height="26" viewBox="0 0 26 26" fill="none" xmlns="http://www.w3.org/2000/svg">
<path d="M11 15C13.2091 15 15 13.2091 15 11C15 8.79086 13.2091 7 11 7C8.79086 7 7 8.79086 7 11C7 13.2091 8.79086 15 11 15Z" fill="#333333"/>
<path d="M24.2 1H1.8C1.359 1 1 1.363 1 1.812V24.187C1 24.637 1.359 25 1.8 25H24.2C24.64 25 25 24.637 25 24.188V1.812C25 1.363 24.641 1 24.2 1ZM20.701 20.733C20.161 21.273 19.84 21.254 19.699 21.113C19.558 20.971 14.472 15.886 14.472 15.886C13.492 16.585 12.296 17 11 17C7.687 17 5 14.313 5 11C5 7.687 7.687 5 11 5C14.313 5 17 7.687 17 11C17 12.295 16.585 13.492 15.887 14.473C15.887 14.473 20.989 19.575 21.114 19.7C21.238 19.823 21.241 20.193 20.701 20.733Z" fill="#333333"/>
</svg>
